X:1
T:The Lark on the Strand
C:Trad.
D:Dervish: "Midsummer's Night" (1999)
I:Joué en E (capo 1) sur le CD.
M:6/8
R:jig
K:D
|: E3 EDE | FDB, D3 | EFE DFA | B2B BAF |
   E3 EDE | FDB, D3 | EFE D2F |1 AFD F2D :|2 AFD F2E 
|: DFD d2D | dfe dAF | DFD d2A | B2B BAF |
   DFD d2D | dfe dcd | e2e edA | B2B BAF :|
